img/writing.svg

<svg xmlns="http://www.w3.org/2000/svg" viewBox="0 0 512 512"><path d="M256.001 512C397 512 512 397 512 255.999 512 115 397 0 256.001 0 115 0 0 115 0 255.999 0 397 115 512 256.001 512z" fill="#5dddd3"/><path d="M117.586 71.673h276.828v311.43l-57.218 57.221h-219.61V71.673z" fill="#fff"/><path d="M337.193 383.106h57.218l-57.218 57.221v-57.221z" fill="#ffca4f"/><path d="M151.848 112.951h201.797v2.993H151.848v-2.993zm0 172.554h92.327v2.993h-92.327v-2.993zm0-15.977h201.797v2.993H151.848v-2.993zm0-19.573h201.797v2.993H151.848v-2.993zm0-19.57h201.797v2.993H151.848v-2.993zm0-19.573h201.797v2.993H151.848v-2.993zm0-19.57h201.797v2.993H151.848v-2.993zm0-19.572h201.797v2.993H151.848v-2.993zm0-19.571h201.797v2.993H151.848v-2.993zm0-19.572h201.797v2.993H151.848v-2.993z" fill="#c8cacc"/><path d="M242.616 290.481l-40.247 21.682 18.587 18.589 21.663-40.271h-.003z" fill="#ffca4f"/><path d="M207.801 317.602c4.64.422 7.399 2.801 7.717 7.714L70.149 470.685l-7.717-7.717 145.369-145.366z" fill="#20d0c2"/><path d="M207.801 317.602c.391-3.714-1.199-5.718-5.435-5.437L56.998 457.534l5.435 5.435 145.368-145.367z" fill="#15bdb1"/><path d="M75.584 476.12l-18.587-18.587-4.59 4.59 18.587 18.587 4.59-4.59z" fill="#ecf0f1"/><path d="M57.221 485.303l-9.403-9.406c-2.526-2.526-2.526-6.657 0-9.18l4.593-4.59 18.587 18.587-4.59 4.59c-2.523 2.523-6.655 2.526-9.18 0h-.007z" fill="#ffca4f"/><path d="M245.234 288.626l-.774-.774-16.937 10.754 6.93 6.933 10.781-16.913z" fill="#666"/><path d="M215.518 325.316c3.714-.391 5.718 1.199 5.435 5.437L75.584 476.123l-5.435-5.437 145.369-145.37z" fill="#15bdb1"/></svg>

<?xml version="1.0" encoding="iso-8859-1"?>
<!-- Generator: Adobe Illustrator 19.0.0, SVG Export Plug-In . SVG Version: 6.00 Build 0)  -->
<svg version="1.1" id="Layer_1" xmlns="http://www.w3.org/2000/svg" xmlns:xlink="http://www.w3.org/1999/xlink" x="0px" y="0px"
	 viewBox="0 0 512 512" style="enable-background:new 0 0 512 512;" xml:space="preserve">
<path style="fill:#5DDDD3;" d="M256.001,512C397,512,512,397,512,255.999C512,115,397,0,256.001,0C115,0,0,115,0,255.999
	C0,397,115,512,256.001,512z"/>
<path style="fill:#FFFFFF;" d="M117.586,71.673h276.828v311.43l-57.218,57.221h-219.61V71.673z"/>
<path style="fill:#FFCA4F;" d="M337.193,383.106h57.218l-57.218,57.221V383.106z"/>
<path style="fill:#C8CACC;" d="M151.848,112.951h201.797v2.993H151.848V112.951z M151.848,285.505L151.848,285.505h92.327v2.993
	h-92.327V285.505z M151.848,269.528L151.848,269.528h201.797v2.993H151.848V269.528z M151.848,249.955L151.848,249.955h201.797
	v2.993H151.848V249.955z M151.848,230.385L151.848,230.385h201.797v2.993H151.848V230.385z M151.848,210.812L151.848,210.812
	h201.797v2.993H151.848V210.812z M151.848,191.242L151.848,191.242h201.797v2.993H151.848V191.242z M151.848,171.67L151.848,171.67
	h201.797v2.993H151.848V171.67z M151.848,152.099L151.848,152.099h201.797v2.993H151.848V152.099z M151.848,132.527L151.848,132.527
	h201.797v2.993H151.848V132.527z"/>
<path style="fill:#FFCA4F;" d="M242.616,290.481l-40.247,21.682l18.587,18.589l21.663-40.271H242.616z"/>
<path style="fill:#20D0C2;" d="M207.801,317.602c4.64,0.422,7.399,2.801,7.717,7.714L70.149,470.685l-7.717-7.717L207.801,317.602z"
	/>
<path style="fill:#15BDB1;" d="M207.801,317.602c0.391-3.714-1.199-5.718-5.435-5.437L56.998,457.534l5.435,5.435L207.801,317.602z"
	/>
<path style="fill:#ECF0F1;" d="M75.584,476.12l-18.587-18.587l-4.59,4.59l18.587,18.587L75.584,476.12z"/>
<path style="fill:#FFCA4F;" d="M57.221,485.303l-9.403-9.406c-2.526-2.526-2.526-6.657,0-9.18l4.593-4.59l18.587,18.587l-4.59,4.59
	c-2.523,2.523-6.655,2.526-9.18,0H57.221z"/>
<path style="fill:#666666;" d="M245.234,288.626l-0.774-0.774l-16.937,10.754l6.93,6.933L245.234,288.626z"/>
<path style="fill:#15BDB1;" d="M215.518,325.316c3.714-0.391,5.718,1.199,5.435,5.437L75.584,476.123l-5.435-5.437L215.518,325.316z
	"/>
<g>
</g>
<g>
</g>
<g>
</g>
<g>
</g>
<g>
</g>
<g>
</g>
<g>
</g>
<g>
</g>
<g>
</g>
<g>
</g>
<g>
</g>
<g>
</g>
<g>
</g>
<g>
</g>
<g>
</g>
</svg>
